X:1
T:Podbrdo, 85.85 D
T:Podbrdo, 85.85 D
T:Mrs. H. A. Fansworth, 1909
T:Public Domain Courtesy of the Cyber Hymnal™
C:Mrs. H. A. Fansworth, 1909
Z:Public Domain
Z:Courtesy of the Cyber Hymnal™
%%score 1 ( 2 3 )
L:1/8
Q:1/4=105
M:6/8
K:Ab
V:1 treble 
V:2 bass 
V:3 bass 
V:1
 [CEc]2 [CEG] [CEB]2 [CEA] | [CE]2 [=B,=D] [CF]2 [CE] | [Ec]2 [Ec] [Ed]2 [Ec] | [DF]3- [DF]2 z | %4
 [DFd]2 [DF=A] [DFc]2 [DFB] | [DF]2 [D=E] [DG]2 [DF] | [EG]2 [EG] [EA]2 [E=A] | ([EB]3 [Ge]2) z | %8
 [CEc]2 [CEG] [CEB]2 [CEA] | [CE]2 [=B,=D] [CF]2 [CE] | [_Gc]2 [Gc] [GB]2 [GA] | [Fd]3- [Fd]2 z | %12
 [Fd]2 [DF] [FBe]2 [FBd] | [Ec]2 [CE] [=B,=D]2 [CE] | [DF]2 [Fd] [Ec]2 [DB] | [CA]3- [CA]2 z |] %16
V:2
 [A,,E,]3 [E,,E,]3 | [A,,E,]3 [E,,E,]3 | [A,,A,]3 [=A,,F,]3 | (F,2 =E, G,2 F,) | %4
 [B,,F,]3 [F,,F,]3 | [B,,F,]3 [B,,B,]3 | [E,B,]2 [E,B,] [E,C]2 [E,C] | ([E,-D]3 [E,B,]2) z | %8
 [A,,A,]3 [E,,E,]3 | [A,,E,]3 [E,,E,]3 | [A,,A,]3 [A,,A,][B,,B,][C,C] | (D2 G, [D,A,]2) F, | %12
 [D,A,]2 [D,A,] [B,,A,]2 [B,,A,] | [E,A,]2 [E,A,] [F,A,]2 [E,A,] | [D,A,]2 [B,,A,] [E,A,]2 [E,G,] | %15
 [A,,A,]3- [A,,A,]2 z |] %16
V:3
 x6 | x6 | x6 | B,,6 | x6 | x6 | x6 | x6 | x6 | x6 | x6 | D,3- x3 | x6 | x6 | x6 | x6 |] %16

